X:1
T:Alma mia dova ten vai?
T:Marco da Gagliano 1582 - 1643
T:Alma mia dova ten vai?
T:Canzonetta a due voci
T:(C) Wim Looyestijn - 2018. May be freely copied for non-commercial use.
T:(C) Wim Looyestijn - 2018. May be freely copied for non-commercial use.
C:Marco da Gagliano
C:1582 - 1643
Z:(C) Wim Looyestijn - 2018. May be freely copied for non-commercial use.
%%score [ 1 2 ] { ( 3 5 ) | 4 }
L:1/8
Q:1/4=40
M:4/4
K:F
V:1 treble nm="Soprano" snm="S"
V:2 treble nm="Contralto" snm="C"
V:3 treble nm="B.C." snm="BC"
V:5 treble 
V:4 bass 
V:1
"^Lento" F2 G2 A4- | A2 G3 G F2 | G4 G4 | c2 d2 e4- | e2 c2 =B3 A | A8 | A2 B2 c4- | c2 G2 G3 F | %8
w: 1. Al- ma mia|* do- va ten'|va- i?|Al- ma mia|* chi fug- gi|tu?|Un che a- do-|* ra i tuoi bei|
w: 2. La- gri- ma-|* te oc- chi do-|len- te,|la- gri- ma-|* te, el- la s'en|va:|in- fe- li-|* ci, ec- co- vi|
 E4 E4 | F2 G2 A4- | A2 F2 E3 D | D8 | z8 | z8 | z8 |] %15
w: ra- i|on- de il cor|* fe- ri- to|fu.||||
w: spen- ti|sen- za i rai|* di sua bel-|tà.||||
V:2
 D2 E2 F4- | F2 E3 E D2 | E4 E4 | A2 =B2 c4- | c2 A2 A2 ^GA | A8 | F2 G2 A4- | A2 E2 E3 D | %8
w: 3. Ne ve- drò|* la man di|ro- se,|ch'al- la Au- ro-|* ra scor- no *|fà|ne le ci-|* glia lu- mi-|
w: 4. Sen- ti- rò|* ben giù nel|se- no,|fo- co tal|* ch'io ne mor- *|rò.|Lun- gi ap- pres-|* so ar- don' non|
 ^C4 C4 | D2 E2 F4- | F2 D2 D2 ^CD | D8 | z8 | z8 | z8 |] %15
w: no se|do- ve A- mor|* con ar- co *|stà.||||
w: me- no,|quei begl' oc-|* chi, e ben lo *|sò.||||
V:3
 [A,DF]8 |"^Instrument change" [A,DF]8 |"^Instrument change" [CEG]8 |"^Instrument change" [CEA]8 | %4
"^Instrument change" F2 A4 ^GA |"^Instrument change" [CEA]8 |"^Instrument change" [CF-A-]8 | %7
"^Instrument change" [FA]2 [EG]4"^Instrument change" [DFB]2 |"^Instrument change" [^CEA]8 | %9
"^Instrument change" [DF]2 [EG]2 [CF-A-]4 |"^Instrument change" [FA]2 F2"^Instrument change" E3 D | %11
"^Instrument change" D8 |"^Instrument change" [GB]2 [FA][EG] [DF]2 [EG]2 | %13
"^Instrument change" [FA]2"^Instrument change" [EG][DF] E3 F |"^Instrument change" D8 |] %15
V:4
 D,8 | D,8 | C,8 | A,,8 | D,4 E,4 | A,,8 | F,8 | ^C,6 G,,2 | A,,8 | G,,4 F,,4 | G,,4 A,,4 | D,8 | %12
 G,,2 A,,2 B,,2 A,,G,, | F,,2 G,,2 A,,4 | D,8 |] %15
V:5
 x8 | x8 | x8 | x8 | C4"^Instrument change" [=B,E]4 | x8 | x8 | x8 | x8 | x8 | B,2 D4 ^CD | x8 | %12
 x8 | x4 C2 ^C2 | x8 |] %15

